X: 11704
M: 6/8
L: 1/8
K: Am
c2B c2d | e2f e2d | c2B c2d | e3 A2B |\
c2d e2a | g2e d2e | c2A BA^G | A3 A2 :|\
c2A AGE | c2A AGE | c2A AGE | G3 G2B |
c2d e2a | g2e d2e | c2A BA^G | A3 A2B |\
c2A AGE | c2A AGE | edc dcB | cBA GAB |\
c2d e2a | g2e d2e | c2A BA^G | A3 A2 |]


